icons/php.svg

<svg width="259" height="239" viewBox="0 0 259 239" fill="none" xmlns="http://www.w3.org/2000/svg">
<path d="M85.3645 116.961C81.844 135.009 69.4109 133.137 54.1257 133.137L60.2308 101.676C77.1649 101.676 88.6622 99.8485 85.3645 116.961ZM31.5321 165H47.8868L51.7638 145.036C70.0793 145.036 81.4429 146.373 91.9599 136.524C103.591 125.829 106.621 106.8 98.3324 97.2638C94.0098 92.2727 87.0579 89.8218 77.6105 89.8218H46.1043L31.5321 165ZM114.286 69.8128H130.552L126.675 89.7772C140.712 89.7772 153.725 88.7522 160.008 94.5455C166.603 100.606 163.439 108.36 156.309 144.947H139.821C146.684 109.563 147.976 106.622 145.48 103.948C143.074 101.364 137.593 101.898 124.357 101.898L115.979 144.947H99.7139L114.286 69.8128ZM213.172 116.961C209.607 135.276 196.817 133.137 181.933 133.137L188.038 101.676C205.062 101.676 216.47 99.8485 213.172 116.961ZM159.34 165H175.739L179.616 145.036C198.867 145.036 209.518 146.15 219.812 136.524C231.443 125.829 234.473 106.8 226.185 97.2638C221.862 92.2727 214.91 89.8218 205.463 89.8218H173.956L159.34 165Z" fill="#8F9FD1"/>
</svg>

<?xml version="1.0" encoding="UTF-8"?>
<svg fill="none" viewBox="0 0 259 239" xmlns="http://www.w3.org/2000/svg">
<path d="m85.364 116.96c-3.5205 18.048-15.954 16.176-31.239 16.176l6.1051-31.461c16.934 0 28.431-1.8275 25.134 15.285zm-53.832 48.039h16.355l3.877-19.964c18.316 0 29.679 1.337 40.196-8.512 11.631-10.695 14.661-29.724 6.3725-39.26-4.3226-4.9911-11.274-7.442-20.722-7.442h-31.506l-14.572 75.178zm82.754-95.187h16.266l-3.877 19.964c14.037 0 27.05-1.025 33.333 4.7683 6.595 6.0605 3.431 13.814-3.699 50.402h-16.488c6.863-35.384 8.155-38.325 5.659-40.999-2.406-2.584-7.887-2.05-21.123-2.05l-8.378 43.049h-16.265l14.572-75.134zm98.886 47.148c-3.565 18.315-16.355 16.176-31.239 16.176l6.105-31.461c17.024 0 28.432-1.8275 25.134 15.285zm-53.832 48.039h16.399l3.877-19.964c19.251 0 29.902 1.114 40.196-8.512 11.631-10.695 14.661-29.724 6.373-39.26-4.323-4.9911-11.275-7.442-20.722-7.442h-31.507l-14.616 75.178z" fill="#8F9FD1"/>
</svg>
